Papirus/22x22/panel/messenger-indicator.svg

<?xml version="1.0" encoding="UTF-8" standalone="no"?>
<svg xmlns:dc="http://purl.org/dc/elements/1.1/" xmlns:cc="http://creativecommons.org/ns#" xmlns:rdf="http://www.w3.org/1999/02/22-rdf-syntax-ns#" xmlns:svg="http://www.w3.org/2000/svg" xmlns="http://www.w3.org/2000/svg" id="svg2" viewBox="0 0 22 22" version="1.1" width="22" height="22">
    <metadata id="metadata51">
        <rdf:RDF>
            <cc:Work rdf:about="">
                <dc:format>
                    image/svg+xml
                </dc:format>
                <dc:type rdf:resource="http://purl.org/dc/dcmitype/StillImage"/>
                <dc:title/>
            </cc:Work>
        </rdf:RDF>
    </metadata>
    <path id="path4163" d="M 11.017578 3 C 7.1248215 3 3.8883398 5.5954036 3.1835938 9.0273438 C 3.0634423 9.545177 3.0016182 10.07352 3 10.603516 C 3.0030139 12.881054 4.1074093 15.032418 6 16.453125 L 6 20 L 8.3320312 17.667969 C 9.1826725 17.950159 10.077937 18.102783 10.982422 18.103516 C 14.81695 18.101116 18.106376 15.536646 18.818359 11.996094 C 18.935165 11.490386 19 10.965932 19 10.427734 C 19 6.3250489 15.425632 3 11.017578 3 z M 10 7 L 12 10.5 L 17 8 L 11 14 L 9.5 10.5 L 5 13 L 10 7 z " style="fill:#ffffff;fill-opacity:1;opacity:1"/>
</svg>

<?xml version="1.0" encoding="UTF-8" standalone="no"?>
<svg id="svg2" xmlns:rdf="http://www.w3.org/1999/02/22-rdf-syntax-ns#" xmlns="http://www.w3.org/2000/svg" viewBox="0 0 22 22" width="22" version="1.1" xmlns:cc="http://creativecommons.org/ns#" height="22" xmlns:dc="http://purl.org/dc/elements/1.1/">
 <metadata id="metadata51">
  <rdf:RDF>
   <cc:Work rdf:about="">
    <dc:format>image/svg+xml</dc:format>
    <dc:type rdf:resource="http://purl.org/dc/dcmitype/StillImage"/>
    <dc:title/>
   </cc:Work>
  </rdf:RDF>
 </metadata>
 <path id="path4163" d="m11.018 3c-3.8932 0-7.1297 2.5954-7.8344 6.0273-0.1202 0.5179-0.182 1.0467-0.1836 1.5767 0.003 2.277 1.1074 4.428 3 5.849v3.547l2.332-2.332c0.8507 0.282 1.746 0.435 2.65 0.436 3.835-0.003 7.124-2.567 7.836-6.108 0.117-0.506 0.182-1.03 0.182-1.568 0-4.103-3.574-7.428-7.982-7.428zm-1.018 4l2 3.5 5-2.5-6 6-1.5-3.5-4.5 2.5 5-6z" fill="#fff"/>
</svg>
